X: 36
T: RED HOUSE
T: D'ye Ken John Peel
B: "Old English Country Dances", Frank Kidson ed., William Reeves pub., London 1890
Z: 2010-9-26 John Chambers <jc:trillian.mit.edu>
N: Missing beat in last bar left; it should probably be | B4 G4 |]
M: C
L: 1/8
K: Gm
G2 g4 fe | d4 B4 | A2 f4 ed | c4 A4 | G2 g4 fe |
d4 B4 | cBAG ^FGA2 | B2G2 G2 || Bc | dcBA GABc | d4 B4 |
cBAG FGAB | c4 A4 | dcBA GABc | d4 B4 | cBAG ^FGA2 |
B2G2 G2 || Bc | d2d2 d2Bc | d2d2 d2AB | c2c2 c2AB |
c2c2 c2Bc | d2d2 d2Bc | d2d2 d2AB | cBAG ^FGA2 | B2 G4 |]


%%sep 1 1 500

%%sep 1 1 500

